packages/core/src/svgs/tokens/mono/MFT.svg

<svg width="24" height="24" viewBox="0 0 24 24" fill="none" xmlns="http://www.w3.org/2000/svg">
<path fill-rule="evenodd" clip-rule="evenodd" d="M13.7003 11.9999C13.7003 15.3137 11.0811 18 7.85015 18C4.6192 18 2 15.3137 2 11.9999C2 8.68612 4.6192 5.99976 7.85015 5.99976C11.0811 5.99976 13.7003 8.68612 13.7003 11.9999ZM10.3997 12.0004C10.3997 13.4446 9.258 14.6154 7.84963 14.6154C6.44126 14.6154 5.29957 13.4446 5.29957 12.0004C5.29957 10.5561 6.44126 9.38535 7.84963 9.38535C9.258 9.38535 10.3997 10.5561 10.3997 12.0004Z" fill="white"/>
<path fill-rule="evenodd" clip-rule="evenodd" d="M22 11.9999C22 15.3137 19.3809 18 16.15 18C12.9189 18 10.2998 15.3137 10.2998 11.9999C10.2998 8.68612 12.9189 5.99976 16.15 5.99976C19.3809 5.99976 22 8.68612 22 11.9999ZM18.6994 12.0004C18.6994 13.4446 17.5577 14.6154 16.1494 14.6154C14.7411 14.6154 13.5993 13.4446 13.5993 12.0004C13.5993 10.5561 14.7411 9.38535 16.1494 9.38535C17.5577 9.38535 18.6994 10.5561 18.6994 12.0004Z" fill="white"/>
<path d="M10.2897 11.9603C10.2897 9.81036 11.4148 8.26527 11.9997 7.76025C12.5547 8.30879 12.9939 8.96322 13.291 9.68471C13.5882 10.4062 13.7374 11.1801 13.7298 11.9603C13.7042 13.5523 13.0876 15.0779 11.9997 16.2405C10.892 15.0923 10.278 13.5558 10.2897 11.9603Z" fill="white"/>
</svg>

<svg xmlns="http://www.w3.org/2000/svg" width="24" height="24" fill="none" viewBox="0 0 24 24">
    <path fill="#fff" fill-rule="evenodd" d="M13.7 12c0 3.314-2.619 6-5.85 6S2 15.314 2 12s2.62-6 5.85-6c3.231 0 5.85 2.686 5.85 6m-3.3 0c0 1.445-1.142 2.615-2.55 2.615-1.409 0-2.55-1.17-2.55-2.615 0-1.444 1.141-2.615 2.55-2.615S10.4 10.556 10.4 12" clip-rule="evenodd"/>
    <path fill="#fff" fill-rule="evenodd" d="M22 12c0 3.314-2.62 6-5.85 6-3.231 0-5.85-2.686-5.85-6s2.619-6 5.85-6S22 8.686 22 12m-3.3 0c0 1.445-1.142 2.615-2.55 2.615-1.409 0-2.55-1.17-2.55-2.615 0-1.444 1.141-2.615 2.55-2.615S18.7 10.556 18.7 12" clip-rule="evenodd"/>
    <path fill="#fff" d="M10.29 11.96c0-2.15 1.125-3.695 1.71-4.2a5.82 5.82 0 0 1 1.73 4.2A6.42 6.42 0 0 1 12 16.24a6.1 6.1 0 0 1-1.71-4.28"/>
</svg>
